img/svg_icons/microphone.svg

<svg width="29" height="31" viewBox="0 0 29 31" fill="none" xmlns="http://www.w3.org/2000/svg">
<path d="M8.24214 26.6687C7.89728 27.4274 6.57567 28.8733 4.10378 28.324C2.24151 27.9102 1.41384 29.9794 1 30.6001" stroke="white"/>
<path d="M22.3126 10.9429L18.1742 8.04602L8.03523 24.8064L10.1044 26.2548L22.3126 10.9429Z" fill="white"/>
<path d="M18.9372 3.71834C20.3876 1.66476 23.2281 1.17578 25.2817 2.62616C27.3352 4.07654 27.8242 6.91706 26.3738 8.97063C25.8454 9.71888 25.1323 10.2594 24.3401 10.5741C24.3401 10.5741 22.5284 9.29456 21.2231 8.37265C19.9178 7.45074 18.1061 6.17121 18.1061 6.17121C18.1377 5.31932 18.4087 4.46659 18.9372 3.71834Z" fill="white"/>
</svg>

<svg width="29" height="31" fill="none" xmlns="http://www.w3.org/2000/svg"><path d="M8.242 26.669c-.345.758-1.666 2.204-4.138 1.655C2.242 27.91 1.414 29.979 1 30.6" stroke="#fff"/><path d="M22.313 10.943l-4.139-2.897-10.139 16.76 2.07 1.449 12.208-15.312zm-3.376-7.225a4.552 4.552 0 115.403 6.856l-3.117-2.201-3.117-2.202a4.53 4.53 0 01.831-2.453z" fill="#fff"/></svg>
